(G-CODE GENERATED BY FLATCAM v8.98 - www.flatcam.org - Version Date: 2019/10/16)

(Name: agujeros)
(Type: G-code from Excellon)
(Units: MM)

(Created on Friday, 31 January 2020 at 21:12)

(Feedrate: 3.0 mm/min)
(Feedrate rapids 3.0 mm/min)

(Z_Cut: -2.2 mm)
(Z_Move: 1.0 mm)
(Z Toolchange: 0.5 mm)
(X,Y Toolchange: 0.0000, 0.0000 mm)
(Z Start: None mm)
(Z End: 50.0 mm)
(Steps per circle: 128)
(Postprocessor Excellon: default)

(X range:   13.0650 ...   15.9660  mm)
(Y range:    5.0560 ...    8.4650  mm)

(Spindle Speed: 12000.0 RPM)

G21
G90
G94

G01 F3.00
G00 Z1.0000

M03 S12000.0
G00 X13.5250 Y8.0050
G01 Z-2.2000
G01 Z0
G00 Z1.0000
G00 X15.5060 Y8.0050
G01 Z-2.2000
G01 Z0
G00 Z1.0000
G00 X15.5060 Y5.5160
G01 Z-2.2000
G01 Z0
G00 Z1.0000
G00 X13.5250 Y5.5160
G01 Z-2.2000
G01 Z0
G00 Z1.0000
M05
G00 Z50.00
G00 X0.0 Y0.0

M02