(G-CODE GENERATED BY FLATCAM v8.98 - www.flatcam.org - Version Date: 2019/10/16)

(Name: corte)
(Type: G-code from Geometry)
(Units: MM)

(Created on Friday, 31 January 2020 at 21:12)

(TOOL DIAMETER: 4.0 mm)
(Feedrate: 3.0 mm/min)
(Feedrate_Z: 3.0 mm/min)
(Feedrate rapids 3.0 mm/min)

(Z_Cut: -2.0 mm)
(Z_Move: 1.0 mm)
(Z Toolchange: 0.5 mm)
(X,Y Toolchange: 0.0000, 0.0000 mm)
(Z Start: None mm)
(Z End: 50.0 mm)
(Steps per circle: 128)
(Postprocessor Geometry: default)

(X range:   -2.1310 ...   22.1310  mm)
(Y range:   -2.1310 ...   16.1300  mm)

(Spindle Speed: 12000 RPM)

G21
G90
G94

G01 F3.00
G00 Z1.0000

M03 S12000
G00 X-2.1310 Y4.8034
G01 F3.00
G01 Z-2.0000
G01 F3.00
G01 X-2.1310 Y-0.1271
G01 X-2.1213 Y-0.3235
G01 X-2.0925 Y-0.5180
G01 X-2.0447 Y-0.7088
G01 X-1.9784 Y-0.8939
G01 X-1.8943 Y-1.0717
G01 X-1.7932 Y-1.2404
G01 X-1.6761 Y-1.3983
G01 X-1.5440 Y-1.5440
G01 X-1.3983 Y-1.6761
G01 X-1.2404 Y-1.7932
G01 X-1.0717 Y-1.8943
G01 X-0.8939 Y-1.9784
G01 X-0.7088 Y-2.0447
G01 X-0.5180 Y-2.0925
G01 X-0.3235 Y-2.1213
G01 X-0.1271 Y-2.1310
G01 X7.8039 Y-2.1310
G00 Z1.0000
G00 X12.2039 Y-2.1310
G01 F3.00
G01 Z-2.0000
G01 F3.00
G01 X20.1271 Y-2.1310
G00 Z1.0000
G00 X20.1271 Y-2.1310
G01 F3.00
G01 Z-2.0000
G01 F3.00
G01 X20.3235 Y-2.1213
G01 X20.5180 Y-2.0925
G01 X20.7088 Y-2.0447
G01 X20.8939 Y-1.9784
G01 X21.0717 Y-1.8943
G01 X21.2404 Y-1.7932
G01 X21.3983 Y-1.6761
G01 X21.5440 Y-1.5440
G01 X21.6761 Y-1.3983
G01 X21.7932 Y-1.2404
G01 X21.8943 Y-1.0717
G01 X21.9784 Y-0.8939
G01 X22.0447 Y-0.7088
G01 X22.0925 Y-0.5180
G01 X22.1213 Y-0.3235
G01 X22.1310 Y-0.1271
G01 X22.1310 Y4.8034
G00 Z1.0000
G00 X22.1310 Y9.2034
G01 F3.00
G01 Z-2.0000
G01 F3.00
G01 X22.1310 Y14.1261
G01 X22.1213 Y14.3225
G01 X22.0925 Y14.5170
G01 X22.0447 Y14.7078
G01 X21.9784 Y14.8929
G01 X21.8943 Y15.0707
G01 X21.7932 Y15.2394
G01 X21.6761 Y15.3973
G01 X21.5440 Y15.5430
G01 X21.3983 Y15.6751
G01 X21.2404 Y15.7922
G01 X21.0717 Y15.8933
G01 X20.8939 Y15.9774
G01 X20.7088 Y16.0437
G01 X20.5180 Y16.0915
G01 X20.3235 Y16.1203
G01 X20.1271 Y16.1300
G01 X12.2039 Y16.1300
G00 Z1.0000
G00 X7.8039 Y16.1300
G01 F3.00
G01 Z-2.0000
G01 F3.00
G01 X-0.1271 Y16.1300
G01 X-0.3235 Y16.1203
G01 X-0.5180 Y16.0915
G01 X-0.7088 Y16.0437
G01 X-0.8939 Y15.9774
G01 X-1.0717 Y15.8933
G01 X-1.2404 Y15.7922
G01 X-1.3983 Y15.6751
G01 X-1.5440 Y15.5430
G01 X-1.6761 Y15.3973
G01 X-1.7932 Y15.2394
G01 X-1.8943 Y15.0707
G01 X-1.9784 Y14.8929
G01 X-2.0447 Y14.7078
G01 X-2.0925 Y14.5170
G01 X-2.1213 Y14.3225
G01 X-2.1310 Y14.1261
G01 X-2.1310 Y9.2034
G00 Z1.0000
M05
G00 Z1.0000
G00 Z50.00
G00 X0.0 Y0.0

M02