(G-CODE GENERATED BY FLATCAM v8.98 - www.flatcam.org - Version Date: 2019/10/16)

(Name: pistas)
(Type: G-code from Geometry)
(Units: MM)

(Created on Friday, 31 January 2020 at 21:12)

(TOOL DIAMETER: 0.2 mm)
(Feedrate: 10.0 mm/min)
(Feedrate_Z: 3.0 mm/min)
(Feedrate rapids 3.0 mm/min)

(Z_Cut: -0.3 mm)
(Z_Move: 1.0 mm)
(Z Toolchange: 0.5 mm)
(X,Y Toolchange: 0.0000, 0.0000 mm)
(Z Start: None mm)
(Z End: 50.0 mm)
(Steps per circle: 128)
(Postprocessor Geometry: default)

(X range:    0.8890 ...   18.1262  mm)
(Y range:    3.0630 ...   13.2022  mm)

(Spindle Speed: 12000 RPM)

G21
G90
G94

G01 F10.00
G00 Z1.0000

M03 S12000
G00 X0.9841 Y4.4629
G01 F3.00
G01 Z-0.3000
G01 F10.00
G01 X0.9647 Y4.4600
G01 X0.9462 Y4.4534
G01 X0.9294 Y4.4433
G01 X0.9149 Y4.4302
G01 X0.9032 Y4.4144
G01 X0.8948 Y4.3967
G01 X0.8901 Y4.3777
G01 X0.8890 Y4.3630
G01 X0.8891 Y3.1581
G01 X0.8909 Y3.1435
G01 X0.8948 Y3.1293
G01 X0.9008 Y3.1159
G01 X0.9117 Y3.0996
G01 X0.9256 Y3.0857
G01 X0.9376 Y3.0772
G01 X0.9507 Y3.0706
G01 X0.9695 Y3.0649
G01 X0.9890 Y3.0630
G01 X3.9939 Y3.0631
G01 X4.0085 Y3.0649
G01 X4.0273 Y3.0706
G01 X4.0446 Y3.0799
G01 X4.0597 Y3.0923
G01 X4.0721 Y3.1074
G01 X4.0814 Y3.1247
G01 X4.0871 Y3.1435
G01 X4.0890 Y3.1628
G01 X8.3050 Y3.1628
G01 X8.3345 Y3.1635
G01 X8.3614 Y3.1654
G01 X8.3955 Y3.1696
G01 X8.4221 Y3.1743
G01 X8.4508 Y3.1807
G01 X8.4792 Y3.1886
G01 X8.5049 Y3.1970
G01 X8.5370 Y3.2094
G01 X8.5616 Y3.2204
G01 X8.5880 Y3.2336
G01 X8.6136 Y3.2481
G01 X8.6364 Y3.2626
G01 X8.6645 Y3.2824
G01 X8.6858 Y3.2990
G01 X8.7081 Y3.3182
G01 X8.7294 Y3.3386
G01 X10.3066 Y4.9158
G01 X12.8041 Y4.9158
G01 X12.8298 Y4.8859
G01 X12.8599 Y4.8543
G01 X12.8949 Y4.8208
G01 X12.9317 Y4.7892
G01 X12.9661 Y4.7624
G01 X13.0017 Y4.7373
G01 X13.0427 Y4.7113
G01 X13.0849 Y4.6875
G01 X13.1261 Y4.6669
G01 X13.1660 Y4.6492
G01 X13.2066 Y4.6335
G01 X13.2527 Y4.6182
G01 X13.2994 Y4.6053
G01 X13.3420 Y4.5958
G01 X13.3849 Y4.5883
G01 X13.4330 Y4.5823
G01 X13.4814 Y4.5788
G01 X13.5250 Y4.5778
G01 X13.5686 Y4.5788
G01 X13.6170 Y4.5823
G01 X13.6651 Y4.5883
G01 X13.7080 Y4.5958
G01 X13.7530 Y4.6059
G01 X13.7973 Y4.6182
G01 X13.8411 Y4.6326
G01 X13.8840 Y4.6492
G01 X13.9261 Y4.6679
G01 X13.9673 Y4.6886
G01 X14.0073 Y4.7113
G01 X14.0462 Y4.7359
G01 X14.0839 Y4.7624
G01 X14.1202 Y4.7908
G01 X14.1551 Y4.8208
G01 X14.1884 Y4.8526
G01 X14.2202 Y4.8859
G01 X14.2502 Y4.9208
G01 X14.2771 Y4.9552
G01 X14.3064 Y4.9968
G01 X14.3297 Y5.0337
G01 X14.3535 Y5.0759
G01 X14.3731 Y5.1149
G01 X14.3918 Y5.1570
G01 X14.4084 Y5.1999
G01 X14.4235 Y5.2460
G01 X14.4351 Y5.2880
G01 X14.4452 Y5.3330
G01 X14.4530 Y5.3783
G01 X14.4587 Y5.4240
G01 X14.4621 Y5.4700
G01 X14.4632 Y5.5148
G01 X14.4621 Y5.5620
G01 X14.4589 Y5.6055
G01 X14.4530 Y5.6537
G01 X14.4452 Y5.6990
G01 X14.4351 Y5.7440
G01 X14.4228 Y5.7883
G01 X14.4084 Y5.8321
G01 X14.3918 Y5.8750
G01 X14.3731 Y5.9171
G01 X14.3524 Y5.9583
G01 X14.3297 Y5.9983
G01 X14.3051 Y6.0372
G01 X14.2786 Y6.0749
G01 X14.2502 Y6.1112
G01 X14.2202 Y6.1461
G01 X14.1884 Y6.1794
G01 X14.1551 Y6.2112
G01 X14.1202 Y6.2412
G01 X14.0839 Y6.2696
G01 X14.0462 Y6.2961
G01 X14.0073 Y6.3207
G01 X13.9673 Y6.3434
G01 X13.9261 Y6.3641
G01 X13.8840 Y6.3828
G01 X13.8411 Y6.3994
G01 X13.7973 Y6.4138
G01 X13.7530 Y6.4261
G01 X13.7080 Y6.4362
G01 X13.6627 Y6.4440
G01 X13.6170 Y6.4497
G01 X13.5710 Y6.4531
G01 X13.5250 Y6.4542
G01 X13.4790 Y6.4531
G01 X13.4355 Y6.4499
G01 X13.3873 Y6.4440
G01 X13.3420 Y6.4362
G01 X13.2970 Y6.4261
G01 X13.2527 Y6.4138
G01 X13.2089 Y6.3994
G01 X13.1660 Y6.3828
G01 X13.1239 Y6.3641
G01 X13.0827 Y6.3434
G01 X13.0427 Y6.3207
G01 X13.0038 Y6.2961
G01 X12.9661 Y6.2696
G01 X12.9298 Y6.2412
G01 X12.8949 Y6.2112
G01 X12.8616 Y6.1794
G01 X12.8298 Y6.1461
G01 X12.8041 Y6.1162
G01 X10.0568 Y6.1162
G01 X10.0285 Y6.1155
G01 X9.9992 Y6.1134
G01 X9.9699 Y6.1098
G01 X9.9409 Y6.1047
G01 X9.9122 Y6.0983
G01 X9.8838 Y6.0904
G01 X9.8558 Y6.0812
G01 X9.8306 Y6.0715
G01 X9.8014 Y6.0586
G01 X9.7750 Y6.0454
G01 X9.7494 Y6.0309
G01 X9.7245 Y6.0151
G01 X9.7004 Y5.9981
G01 X9.6772 Y5.9800
G01 X9.6549 Y5.9608
G01 X9.6353 Y5.9422
G01 X8.0564 Y4.3632
G01 X4.0890 Y4.3632
G01 X4.0871 Y4.3825
G01 X4.0814 Y4.4013
G01 X4.0721 Y4.4186
G01 X4.0597 Y4.4337
G01 X4.0446 Y4.4461
G01 X4.0273 Y4.4554
G01 X4.0133 Y4.4600
G01 X3.9939 Y4.4629
G01 X0.9841 Y4.4629
G00 Z1.0000
G00 X0.9842 Y6.4699
G01 F3.00
G01 Z-0.3000
G01 F10.00
G01 X0.9648 Y6.4670
G01 X0.9464 Y6.4604
G01 X0.9296 Y6.4503
G01 X0.9150 Y6.4372
G01 X0.9034 Y6.4214
G01 X0.8950 Y6.4037
G01 X0.8902 Y6.3847
G01 X0.8891 Y6.3700
G01 X0.8893 Y5.1651
G01 X0.8911 Y5.1505
G01 X0.8950 Y5.1363
G01 X0.9009 Y5.1229
G01 X0.9118 Y5.1066
G01 X0.9220 Y5.0959
G01 X0.9377 Y5.0842
G01 X0.9554 Y5.0758
G01 X0.9696 Y5.0719
G01 X0.9891 Y5.0700
G01 X3.9938 Y5.0701
G01 X4.0084 Y5.0719
G01 X4.0271 Y5.0776
G01 X4.0444 Y5.0869
G01 X4.0596 Y5.0993
G01 X4.0720 Y5.1144
G01 X4.0813 Y5.1317
G01 X4.0869 Y5.1505
G01 X4.0889 Y5.1698
G01 X7.3183 Y5.1698
G01 X7.3472 Y5.1617
G01 X7.3759 Y5.1553
G01 X7.4050 Y5.1502
G01 X7.4342 Y5.1466
G01 X7.4636 Y5.1445
G01 X7.4931 Y5.1438
G01 X7.5225 Y5.1445
G01 X7.5543 Y5.1469
G01 X7.5812 Y5.1503
G01 X7.6078 Y5.1549
G01 X7.6413 Y5.1624
G01 X7.6673 Y5.1696
G01 X7.6953 Y5.1789
G01 X7.7228 Y5.1895
G01 X7.7475 Y5.2004
G01 X7.7782 Y5.2159
G01 X7.8017 Y5.2292
G01 X7.8266 Y5.2450
G01 X7.8507 Y5.2619
G01 X7.8720 Y5.2785
G01 X7.8962 Y5.2993
G01 X7.9175 Y5.3197
G01 X10.0017 Y7.4048
G01 X12.8041 Y7.4048
G01 X12.8298 Y7.3749
G01 X12.8599 Y7.3433
G01 X12.8949 Y7.3098
G01 X12.9317 Y7.2782
G01 X12.9661 Y7.2514
G01 X13.0017 Y7.2263
G01 X13.0427 Y7.2003
G01 X13.0849 Y7.1765
G01 X13.1239 Y7.1569
G01 X13.1637 Y7.1392
G01 X13.2066 Y7.1225
G01 X13.2527 Y7.1072
G01 X13.2994 Y7.0943
G01 X13.3420 Y7.0848
G01 X13.3849 Y7.0773
G01 X13.4330 Y7.0713
G01 X13.4814 Y7.0678
G01 X13.5250 Y7.0668
G01 X13.5686 Y7.0678
G01 X13.6170 Y7.0713
G01 X13.6627 Y7.0770
G01 X13.7080 Y7.0848
G01 X13.7530 Y7.0949
G01 X13.7973 Y7.1072
G01 X13.8411 Y7.1216
G01 X13.8840 Y7.1382
G01 X13.9261 Y7.1569
G01 X13.9673 Y7.1776
G01 X14.0073 Y7.2003
G01 X14.0462 Y7.2249
G01 X14.0839 Y7.2514
G01 X14.1202 Y7.2798
G01 X14.1551 Y7.3098
G01 X14.1884 Y7.3416
G01 X14.2202 Y7.3749
G01 X14.2502 Y7.4098
G01 X14.2771 Y7.4442
G01 X14.3051 Y7.4838
G01 X14.3297 Y7.5227
G01 X14.3524 Y7.5627
G01 X14.3731 Y7.6039
G01 X14.3918 Y7.6460
G01 X14.4084 Y7.6889
G01 X14.4228 Y7.7327
G01 X14.4345 Y7.7747
G01 X14.4452 Y7.8220
G01 X14.4530 Y7.8673
G01 X14.4587 Y7.9130
G01 X14.4619 Y7.9565
G01 X14.4632 Y8.0075
G01 X14.4621 Y8.0510
G01 X14.4584 Y8.0994
G01 X14.4530 Y8.1427
G01 X14.4452 Y8.1880
G01 X14.4351 Y8.2330
G01 X14.4235 Y8.2750
G01 X14.4075 Y8.3234
G01 X14.3918 Y8.3640
G01 X14.3731 Y8.4061
G01 X14.3524 Y8.4473
G01 X14.3310 Y8.4852
G01 X14.3037 Y8.5283
G01 X14.2786 Y8.5639
G01 X14.2502 Y8.6002
G01 X14.2202 Y8.6351
G01 X14.1884 Y8.6684
G01 X14.1551 Y8.7002
G01 X14.1221 Y8.7287
G01 X14.0819 Y8.7600
G01 X14.0462 Y8.7851
G01 X14.0073 Y8.8097
G01 X13.9673 Y8.8324
G01 X13.9261 Y8.8531
G01 X13.8840 Y8.8718
G01 X13.8411 Y8.8884
G01 X13.7973 Y8.9028
G01 X13.7553 Y8.9145
G01 X13.7056 Y8.9256
G01 X13.6627 Y8.9330
G01 X13.6170 Y8.9387
G01 X13.5686 Y8.9422
G01 X13.5250 Y8.9432
G01 X13.4814 Y8.9422
G01 X13.4330 Y8.9387
G01 X13.3873 Y8.9330
G01 X13.3396 Y8.9247
G01 X13.2970 Y8.9151
G01 X13.2550 Y8.9035
G01 X13.2089 Y8.8884
G01 X13.1660 Y8.8718
G01 X13.1239 Y8.8531
G01 X13.0806 Y8.8312
G01 X13.0427 Y8.8097
G01 X13.0058 Y8.7864
G01 X12.9661 Y8.7586
G01 X12.9298 Y8.7302
G01 X12.8931 Y8.6985
G01 X12.8599 Y8.6667
G01 X12.8298 Y8.6351
G01 X12.8041 Y8.6052
G01 X9.7530 Y8.6052
G01 X9.7235 Y8.6045
G01 X9.6917 Y8.6021
G01 X9.6649 Y8.5987
G01 X9.6359 Y8.5937
G01 X9.6071 Y8.5873
G01 X9.5811 Y8.5801
G01 X9.5484 Y8.5693
G01 X9.5232 Y8.5595
G01 X9.4985 Y8.5486
G01 X9.4678 Y8.5331
G01 X9.4443 Y8.5198
G01 X9.4194 Y8.5040
G01 X9.3953 Y8.4871
G01 X9.3740 Y8.4705
G01 X9.3498 Y8.4497
G01 X9.3285 Y8.4293
G01 X7.2703 Y6.3702
G01 X4.0889 Y6.3702
G01 X4.0869 Y6.3895
G01 X4.0813 Y6.4083
G01 X4.0720 Y6.4256
G01 X4.0596 Y6.4407
G01 X4.0484 Y6.4503
G01 X4.0316 Y6.4604
G01 X4.0132 Y6.4670
G01 X3.9938 Y6.4699
G01 X0.9842 Y6.4699
G00 Z1.0000
G00 X0.9842 Y8.4509
G01 F3.00
G01 Z-0.3000
G01 F10.00
G01 X0.9696 Y8.4491
G01 X0.9509 Y8.4434
G01 X0.9336 Y8.4341
G01 X0.9184 Y8.4217
G01 X0.9060 Y8.4066
G01 X0.8967 Y8.3893
G01 X0.8911 Y8.3705
G01 X0.8891 Y8.3510
G01 X0.8893 Y7.1461
G01 X0.8911 Y7.1315
G01 X0.8950 Y7.1173
G01 X0.9009 Y7.1039
G01 X0.9118 Y7.0876
G01 X0.9257 Y7.0737
G01 X0.9377 Y7.0652
G01 X0.9509 Y7.0586
G01 X0.9648 Y7.0540
G01 X0.9793 Y7.0515
G01 X0.9891 Y7.0510
G01 X3.9889 Y7.0510
G01 X4.0084 Y7.0529
G01 X4.0271 Y7.0586
G01 X4.0444 Y7.0679
G01 X4.0596 Y7.0803
G01 X4.0720 Y7.0954
G01 X4.0813 Y7.1127
G01 X4.0869 Y7.1315
G01 X4.0889 Y7.1508
G01 X6.4510 Y7.1508
G01 X6.4804 Y7.1515
G01 X6.5074 Y7.1534
G01 X6.5415 Y7.1576
G01 X6.5681 Y7.1623
G01 X6.5968 Y7.1687
G01 X6.6252 Y7.1766
G01 X6.6508 Y7.1850
G01 X6.6829 Y7.1974
G01 X6.7076 Y7.2083
G01 X6.7339 Y7.2216
G01 X6.7595 Y7.2361
G01 X6.7823 Y7.2505
G01 X6.8104 Y7.2703
G01 X6.8317 Y7.2869
G01 X6.8540 Y7.3062
G01 X6.8753 Y7.3265
G01 X9.0116 Y9.4618
G01 X14.4834 Y9.4618
G01 X14.9058 Y9.0394
G01 X14.9058 Y8.7259
G01 X14.8759 Y8.7002
G01 X14.8443 Y8.6701
G01 X14.8125 Y8.6369
G01 X14.7808 Y8.6002
G01 X14.7539 Y8.5658
G01 X14.7259 Y8.5262
G01 X14.7013 Y8.4873
G01 X14.6786 Y8.4473
G01 X14.6579 Y8.4061
G01 X14.6392 Y8.3640
G01 X14.6218 Y8.3187
G01 X14.6082 Y8.2773
G01 X14.5965 Y8.2353
G01 X14.5863 Y8.1904
G01 X14.5780 Y8.1427
G01 X14.5723 Y8.0970
G01 X14.5689 Y8.0510
G01 X14.5678 Y8.0025
G01 X14.5689 Y7.9590
G01 X14.5721 Y7.9155
G01 X14.5776 Y7.8698
G01 X14.5858 Y7.8220
G01 X14.5959 Y7.7770
G01 X14.6082 Y7.7327
G01 X14.6235 Y7.6866
G01 X14.6402 Y7.6437
G01 X14.6579 Y7.6039
G01 X14.6775 Y7.5649
G01 X14.7013 Y7.5227
G01 X14.7259 Y7.4838
G01 X14.7524 Y7.4461
G01 X14.7823 Y7.4079
G01 X14.8125 Y7.3731
G01 X14.8426 Y7.3416
G01 X14.8741 Y7.3115
G01 X14.9108 Y7.2798
G01 X14.9452 Y7.2529
G01 X14.9868 Y7.2236
G01 X15.0237 Y7.2003
G01 X15.0616 Y7.1788
G01 X15.1049 Y7.1569
G01 X15.1492 Y7.1373
G01 X15.1899 Y7.1216
G01 X15.2313 Y7.1079
G01 X15.2780 Y7.0949
G01 X15.3230 Y7.0848
G01 X15.3659 Y7.0773
G01 X15.4140 Y7.0713
G01 X15.4624 Y7.0678
G01 X15.5060 Y7.0668
G01 X15.5496 Y7.0678
G01 X15.5980 Y7.0713
G01 X15.6461 Y7.0773
G01 X15.6890 Y7.0848
G01 X15.7316 Y7.0943
G01 X15.7783 Y7.1072
G01 X15.8244 Y7.1225
G01 X15.8650 Y7.1382
G01 X15.9071 Y7.1569
G01 X15.9504 Y7.1788
G01 X15.9883 Y7.2003
G01 X16.0272 Y7.2249
G01 X16.0668 Y7.2529
G01 X16.1012 Y7.2798
G01 X16.1342 Y7.3082
G01 X16.1694 Y7.3416
G01 X16.2028 Y7.3768
G01 X16.2312 Y7.4098
G01 X16.2581 Y7.4442
G01 X16.2861 Y7.4838
G01 X16.3107 Y7.5227
G01 X16.3322 Y7.5606
G01 X16.3541 Y7.6039
G01 X16.3737 Y7.6482
G01 X16.3894 Y7.6889
G01 X16.4031 Y7.7303
G01 X16.4161 Y7.7770
G01 X16.4266 Y7.8244
G01 X16.4340 Y7.8673
G01 X16.4394 Y7.9106
G01 X16.4432 Y7.9614
G01 X16.4442 Y8.0075
G01 X16.4431 Y8.0510
G01 X16.4399 Y8.0945
G01 X16.4340 Y8.1427
G01 X16.4266 Y8.1856
G01 X16.4161 Y8.2330
G01 X16.4038 Y8.2773
G01 X16.3894 Y8.3211
G01 X16.3718 Y8.3663
G01 X16.3530 Y8.4083
G01 X16.3334 Y8.4473
G01 X16.3120 Y8.4852
G01 X16.2861 Y8.5262
G01 X16.2596 Y8.5639
G01 X16.2312 Y8.6002
G01 X16.1995 Y8.6369
G01 X16.1677 Y8.6701
G01 X16.1361 Y8.7002
G01 X16.1062 Y8.7259
G01 X16.1062 Y9.2880
G01 X16.1055 Y9.3175
G01 X16.1034 Y9.3468
G01 X16.0998 Y9.3761
G01 X16.0942 Y9.4075
G01 X16.0883 Y9.4338
G01 X16.0811 Y9.4599
G01 X16.0720 Y9.4879
G01 X16.0606 Y9.5177
G01 X16.0486 Y9.5446
G01 X16.0354 Y9.5710
G01 X16.0196 Y9.5987
G01 X16.0037 Y9.6235
G01 X15.9881 Y9.6456
G01 X15.9715 Y9.6669
G01 X15.9508 Y9.6911
G01 X15.9313 Y9.7116
G01 X15.1564 Y10.4864
G01 X15.1351 Y10.5068
G01 X15.1147 Y10.5244
G01 X15.0876 Y10.5456
G01 X15.0655 Y10.5611
G01 X15.0385 Y10.5781
G01 X15.0150 Y10.5914
G01 X14.9886 Y10.6046
G01 X14.9617 Y10.6166
G01 X14.9365 Y10.6263
G01 X14.9039 Y10.6371
G01 X14.8778 Y10.6443
G01 X14.8491 Y10.6507
G01 X14.8201 Y10.6558
G01 X14.7933 Y10.6591
G01 X14.7590 Y10.6616
G01 X14.7320 Y10.6622
G01 X8.7630 Y10.6622
G01 X8.7336 Y10.6615
G01 X8.7066 Y10.6596
G01 X8.6749 Y10.6558
G01 X8.6435 Y10.6502
G01 X8.6172 Y10.6443
G01 X8.5888 Y10.6364
G01 X8.5585 Y10.6263
G01 X8.5334 Y10.6166
G01 X8.5064 Y10.6047
G01 X8.4780 Y10.5902
G01 X8.4545 Y10.5769
G01 X8.4296 Y10.5611
G01 X8.4055 Y10.5442
G01 X8.3842 Y10.5276
G01 X8.3582 Y10.5052
G01 X8.3387 Y10.4865
G01 X6.2024 Y8.3512
G01 X4.0889 Y8.3512
G01 X4.0869 Y8.3705
G01 X4.0813 Y8.3893
G01 X4.0720 Y8.4066
G01 X4.0596 Y8.4217
G01 X4.0444 Y8.4341
G01 X4.0271 Y8.4434
G01 X4.0084 Y8.4491
G01 X3.9889 Y8.4510
G01 X0.9842 Y8.4509
G00 Z1.0000
G00 X0.9842 Y10.4579
G01 F3.00
G01 Z-0.3000
G01 F10.00
G01 X0.9696 Y10.4561
G01 X0.9509 Y10.4504
G01 X0.9336 Y10.4411
G01 X0.9184 Y10.4287
G01 X0.9060 Y10.4136
G01 X0.8967 Y10.3963
G01 X0.8911 Y10.3775
G01 X0.8891 Y10.3580
G01 X0.8893 Y9.1531
G01 X0.8911 Y9.1385
G01 X0.8950 Y9.1243
G01 X0.9009 Y9.1109
G01 X0.9088 Y9.0984
G01 X0.9184 Y9.0873
G01 X0.9296 Y9.0777
G01 X0.9420 Y9.0698
G01 X0.9601 Y9.0623
G01 X0.9745 Y9.0591
G01 X0.9891 Y9.0580
G01 X3.9889 Y9.0580
G01 X4.0084 Y9.0599
G01 X4.0271 Y9.0656
G01 X4.0444 Y9.0749
G01 X4.0596 Y9.0873
G01 X4.0720 Y9.1024
G01 X4.0813 Y9.1197
G01 X4.0869 Y9.1385
G01 X4.0889 Y9.1578
G01 X5.0290 Y9.1578
G01 X5.0584 Y9.1585
G01 X5.0903 Y9.1609
G01 X5.1171 Y9.1642
G01 X5.1461 Y9.1693
G01 X5.1748 Y9.1757
G01 X5.2008 Y9.1829
G01 X5.2335 Y9.1937
G01 X5.2587 Y9.2034
G01 X5.2834 Y9.2143
G01 X5.3140 Y9.2298
G01 X5.3375 Y9.2431
G01 X5.3624 Y9.2589
G01 X5.3865 Y9.2758
G01 X5.4078 Y9.2924
G01 X5.4338 Y9.3148
G01 X5.4534 Y9.3335
G01 X8.1226 Y12.0018
G01 X14.4834 Y12.0018
G01 X16.9258 Y9.5594
G01 X16.9258 Y6.7548
G01 X16.2865 Y6.1162
G01 X16.2269 Y6.1162
G01 X16.2012 Y6.1461
G01 X16.1711 Y6.1777
G01 X16.1379 Y6.2095
G01 X16.1012 Y6.2412
G01 X16.0668 Y6.2681
G01 X16.0272 Y6.2961
G01 X15.9883 Y6.3207
G01 X15.9483 Y6.3434
G01 X15.9071 Y6.3641
G01 X15.8650 Y6.3828
G01 X15.8221 Y6.3994
G01 X15.7783 Y6.4138
G01 X15.7363 Y6.4255
G01 X15.6866 Y6.4366
G01 X15.6437 Y6.4440
G01 X15.5980 Y6.4497
G01 X15.5520 Y6.4531
G01 X15.5060 Y6.4542
G01 X15.4600 Y6.4531
G01 X15.4140 Y6.4497
G01 X15.3683 Y6.4440
G01 X15.3230 Y6.4362
G01 X15.2780 Y6.4261
G01 X15.2337 Y6.4138
G01 X15.1899 Y6.3994
G01 X15.1470 Y6.3828
G01 X15.1049 Y6.3641
G01 X15.0637 Y6.3434
G01 X15.0237 Y6.3207
G01 X14.9848 Y6.2961
G01 X14.9471 Y6.2696
G01 X14.9127 Y6.2428
G01 X14.8759 Y6.2112
G01 X14.8426 Y6.1794
G01 X14.8108 Y6.1461
G01 X14.7823 Y6.1131
G01 X14.7524 Y6.0749
G01 X14.7273 Y6.0393
G01 X14.7000 Y5.9962
G01 X14.6786 Y5.9583
G01 X14.6579 Y5.9171
G01 X14.6392 Y5.8750
G01 X14.6226 Y5.8321
G01 X14.6082 Y5.7883
G01 X14.5959 Y5.7440
G01 X14.5858 Y5.6990
G01 X14.5780 Y5.6537
G01 X14.5723 Y5.6080
G01 X14.5689 Y5.5620
G01 X14.5678 Y5.5160
G01 X14.5688 Y5.4724
G01 X14.5723 Y5.4240
G01 X14.5776 Y5.3808
G01 X14.5863 Y5.3306
G01 X14.5959 Y5.2880
G01 X14.6082 Y5.2437
G01 X14.6226 Y5.1999
G01 X14.6392 Y5.1570
G01 X14.6579 Y5.1149
G01 X14.6786 Y5.0737
G01 X14.7013 Y5.0337
G01 X14.7246 Y4.9968
G01 X14.7524 Y4.9571
G01 X14.7823 Y4.9189
G01 X14.8108 Y4.8859
G01 X14.8409 Y4.8543
G01 X14.8759 Y4.8208
G01 X14.9127 Y4.7892
G01 X14.9471 Y4.7624
G01 X14.9827 Y4.7373
G01 X15.0237 Y4.7113
G01 X15.0637 Y4.6886
G01 X15.1071 Y4.6669
G01 X15.1470 Y4.6492
G01 X15.1876 Y4.6335
G01 X15.2337 Y4.6182
G01 X15.2780 Y4.6059
G01 X15.3230 Y4.5958
G01 X15.3708 Y4.5876
G01 X15.4140 Y4.5823
G01 X15.4575 Y4.5791
G01 X15.5035 Y4.5778
G01 X15.5520 Y4.5789
G01 X15.5980 Y4.5823
G01 X15.6437 Y4.5880
G01 X15.6914 Y4.5963
G01 X15.7363 Y4.6065
G01 X15.7783 Y4.6182
G01 X15.8197 Y4.6318
G01 X15.8650 Y4.6492
G01 X15.9071 Y4.6679
G01 X15.9483 Y4.6886
G01 X15.9883 Y4.7113
G01 X16.0272 Y4.7359
G01 X16.0668 Y4.7639
G01 X16.1012 Y4.7908
G01 X16.1379 Y4.8225
G01 X16.1711 Y4.8543
G01 X16.2012 Y4.8859
G01 X16.2269 Y4.9158
G01 X16.5362 Y4.9158
G01 X16.5644 Y4.9165
G01 X16.5914 Y4.9184
G01 X16.6254 Y4.9226
G01 X16.6520 Y4.9273
G01 X16.6808 Y4.9337
G01 X16.7091 Y4.9416
G01 X16.7348 Y4.9500
G01 X16.7646 Y4.9614
G01 X16.7915 Y4.9733
G01 X16.8178 Y4.9865
G01 X16.8434 Y5.0010
G01 X16.8662 Y5.0154
G01 X16.8943 Y5.0352
G01 X16.9156 Y5.0518
G01 X16.9397 Y5.0727
G01 X16.9592 Y5.0913
G01 X17.9519 Y6.0831
G01 X17.9706 Y6.1027
G01 X17.9882 Y6.1231
G01 X18.0080 Y6.1482
G01 X18.0263 Y6.1744
G01 X18.0407 Y6.1972
G01 X18.0541 Y6.2207
G01 X18.0685 Y6.2492
G01 X18.0814 Y6.2784
G01 X18.0911 Y6.3037
G01 X18.0996 Y6.3293
G01 X18.1082 Y6.3601
G01 X18.1147 Y6.3888
G01 X18.1201 Y6.4203
G01 X18.1234 Y6.4471
G01 X18.1254 Y6.4741
G01 X18.1262 Y6.5060
G01 X18.1262 Y9.8092
G01 X18.1255 Y9.8375
G01 X18.1231 Y9.8693
G01 X18.1194 Y9.8985
G01 X18.1147 Y9.9251
G01 X18.1088 Y9.9515
G01 X18.1004 Y9.9822
G01 X18.0912 Y10.0102
G01 X18.0806 Y10.0377
G01 X18.0686 Y10.0646
G01 X18.0554 Y10.0910
G01 X18.0421 Y10.1145
G01 X18.0237 Y10.1435
G01 X18.0081 Y10.1656
G01 X17.9900 Y10.1888
G01 X17.9708 Y10.2111
G01 X17.9513 Y10.2316
G01 X15.1556 Y13.0273
G01 X15.1351 Y13.0468
G01 X15.1147 Y13.0644
G01 X15.0896 Y13.0841
G01 X15.0634 Y13.1024
G01 X15.0406 Y13.1169
G01 X15.0171 Y13.1302
G01 X14.9886 Y13.1446
G01 X14.9594 Y13.1575
G01 X14.9342 Y13.1672
G01 X14.9086 Y13.1757
G01 X14.8778 Y13.1843
G01 X14.8491 Y13.1907
G01 X14.8176 Y13.1961
G01 X14.7908 Y13.1994
G01 X14.7639 Y13.2014
G01 X14.7320 Y13.2022
G01 X7.8740 Y13.2022
G01 X7.8446 Y13.2015
G01 X7.8152 Y13.1994
G01 X7.7859 Y13.1958
G01 X7.7569 Y13.1907
G01 X7.7282 Y13.1843
G01 X7.7022 Y13.1771
G01 X7.6718 Y13.1672
G01 X7.6421 Y13.1556
G01 X7.6174 Y13.1446
G01 X7.5933 Y13.1325
G01 X7.5634 Y13.1156
G01 X7.5406 Y13.1011
G01 X7.5185 Y13.0856
G01 X7.4933 Y13.0661
G01 X7.4692 Y13.0452
G01 X7.4496 Y13.0265
G01 X4.7804 Y10.3582
G01 X4.0889 Y10.3582
G01 X4.0869 Y10.3775
G01 X4.0813 Y10.3963
G01 X4.0720 Y10.4136
G01 X4.0596 Y10.4287
G01 X4.0444 Y10.4411
G01 X4.0271 Y10.4504
G01 X4.0084 Y10.4561
G01 X3.9938 Y10.4579
G01 X0.9842 Y10.4579
G00 Z1.0000
M05
G00 Z1.0000
G00 Z50.00
G00 X0.0 Y0.0

M02